X:17
T:Mumping Nelly
M:C|
L:1/8
K:G
(g/f/) |gG G(d/c/)    BG           G(g/f/)    |gG         G(c/B/)   A=F F
(g/^f/)|gG2  d/c/     BGGB                    |(3(cdc) (3(BcB)      A=FF:|
 A     |G/G/G g>a     gGGB                    |G/G/G      ga        bAAB |\
        G/G/G ga    (Tf3/e///f///) g2         |cgBg                 A=FF:|
(g/f/) |gG B/c/d/c/   BG           B/c/d/B/   |gG         B/c/d/B/  A=F A/B/
c/A/   |gG B/c/d/c/   BG           B/c/d/B/   |(3(cdc) (3(BcB)      A=FF:|
 A     |G/G/G (TB>A) (BG)(TBA)                |G/G/G     (B>G)      A=FAF|\
        G/G/G (TB>A) (BG) (TBA/B/)            |(3(cdc) (3(BcB)      A=FF:|

% @@@@@@@@@@@@@@@@@@@@@@@@@@@@@@@@@@

%% 18. ===============================================================================

% @A KISS FOR A@
%    Half
%  &Pennie.&
%
% *SETT and cast off one pair; lead down in the middle of the 2d pair, and cast up.
% *First man figures round the 2d Woman, and the Woman round the first Man at the
% same time; meet and sett: the Man figures round the first Woman, and the Woman
% round the 2d Man at the same time, meet and sett as before.  *SETT cross Partners.
% *Run the Heys, sett, and turn your Partner.

% @@@@@@@@@@@@@@@@@@@@@@@@@@@@@@@@@@

